bowling.svg

<svg fill="currentColor" viewBox="0 0 24 24"><path d="M12 2a10 10 0 0 1 10 10 10 10 0 0 1-10 10A10 10 0 0 1 2 12 10 10 0 0 1 12 2m.5 9a1.5 1.5 0 0 0-1.5 1.5 1.5 1.5 0 0 0 1.5 1.5 1.5 1.5 0 0 0 1.5-1.5 1.5 1.5 0 0 0-1.5-1.5M12 5a2 2 0 0 0-2 2 2 2 0 0 0 2 2 2 2 0 0 0 2-2 2 2 0 0 0-2-2M5.93 8.5c-.55.95-.22 2.17.73 2.72.96.56 2.18.23 2.74-.72.55-.97.22-2.19-.74-2.74-.95-.55-2.16-.23-2.73.74"/></svg>

<svg  viewBox="0 0 24 24" fill="currentColor"><path  d="M12,2A10,10 0 0,1 22,12A10,10 0 0,1 12,22A10,10 0 0,1 2,12A10,10 0 0,1 12,2M12.5,11A1.5,1.5 0 0,0 11,12.5A1.5,1.5 0 0,0 12.5,14A1.5,1.5 0 0,0 14,12.5A1.5,1.5 0 0,0 12.5,11M12,5A2,2 0 0,0 10,7A2,2 0 0,0 12,9A2,2 0 0,0 14,7A2,2 0 0,0 12,5M5.93,8.5C5.38,9.45 5.71,10.67 6.66,11.22C7.62,11.78 8.84,11.45 9.4,10.5C9.95,9.53 9.62,8.31 8.66,7.76C7.71,7.21 6.5,7.53 5.93,8.5Z"/></svg>
